icons/desktop/16/svg/gift-16.svg

<svg width="16" height="16" viewBox="0 0 16 16" fill="none" xmlns="http://www.w3.org/2000/svg">
<g clip-path="url(#clip0_4707_1112)">
<path fill-rule="evenodd" clip-rule="evenodd" d="M8 0.862199C7.49868 0.33126 6.78816 0 6 0H5.75C4.23079 0 3 1.23079 3 2.75C3 3.20016 3.10807 3.625 3.29968 4H2.5C1.39579 4 0.5 4.89579 0.5 6V7C0.5 7.73998 0.902287 8.38636 1.5 8.73227V14C1.5 15.1042 2.39579 16 3.5 16H12.5C13.6042 16 14.5 15.1042 14.5 14V8.73227C15.0977 8.38636 15.5 7.73998 15.5 7V6C15.5 4.89579 14.6042 4 13.5 4H12.7003C12.8919 3.625 13 3.20016 13 2.75C13 1.23079 11.7692 0 10.25 0H10C9.21184 0 8.50132 0.33126 8 0.862199ZM5.75 1.5C5.05921 1.5 4.5 2.05921 4.5 2.75C4.5 3.44079 5.05921 4 5.75 4H7.25V2.75C7.25 2.05921 6.69079 1.5 6 1.5H5.75ZM8.75 5.5V7.5H13.5C13.7758 7.5 14 7.27579 14 7V6C14 5.72421 13.7758 5.5 13.5 5.5H8.75ZM10.25 4C10.9408 4 11.5 3.44079 11.5 2.75C11.5 2.05921 10.9408 1.5 10.25 1.5H10C9.30921 1.5 8.75 2.05921 8.75 2.75V4H10.25ZM2.5 5.5H7.25V7.5H2.5C2.22421 7.5 2 7.27579 2 7V6C2 5.72421 2.22421 5.5 2.5 5.5ZM8.75 9H13V14C13 14.2758 12.7758 14.5 12.5 14.5H8.75V9ZM7.25 9V14.5H3.5C3.22421 14.5 3 14.2758 3 14V9H7.25Z" fill="black"/>
</g>
<defs>
<clipPath id="clip0_4707_1112">
<rect width="16" height="16" fill="white"/>
</clipPath>
</defs>
</svg>

<!-- This Source Code Form is subject to the terms of the Mozilla Public
   - License, v. 2.0. If a copy of the MPL was not distributed with this
   - file, You can obtain one at http://mozilla.org/MPL/2.0/. -->
<svg xmlns="http://www.w3.org/2000/svg" width="16" height="16" fill="context-fill" fill-opacity="context-fill-opacity" viewBox="0 0 16 16">
    <g clip-path="url(#clip0_4707_1112)">
        <path d="M8 .862A2.74 2.74 0 0 0 6 0h-.25A2.75 2.75 0 0 0 3.3 4h-.8a2 2 0 0 0-2 2v1a2 2 0 0 0 1 1.732V14a2 2 0 0 0 2 2h9a2 2 0 0 0 2-2V8.732A2 2 0 0 0 15.5 7V6a2 2 0 0 0-2-2h-.8a2.75 2.75 0 0 0-2.45-4H10c-.788 0-1.499.331-2 .862M5.75 1.5a1.25 1.25 0 1 0 0 2.5h1.5V2.75c0-.69-.56-1.25-1.25-1.25zm3 4v2h4.75A.5.5 0 0 0 14 7V6a.5.5 0 0 0-.5-.5zm1.5-1.5a1.25 1.25 0 1 0 0-2.5H10c-.69 0-1.25.56-1.25 1.25V4zM2.5 5.5h4.75v2H2.5A.5.5 0 0 1 2 7V6a.5.5 0 0 1 .5-.5M8.75 9H13v5a.5.5 0 0 1-.5.5H8.75zm-1.5 0v5.5H3.5A.5.5 0 0 1 3 14V9z" />
    </g>
</svg>
